X: 30640
T: Ooh Arr Of Ee Arr, The
R: jig
M: 6/8
K: Gmajor
|:D|GBd gdB|cBc AFD|B^AB c=AG|F/G/AF DcA|
GB/c/d g2 d|ecA F2 D|B^AB c=AF|GBA G2:|
|:B|AFD cAF|G/A/BA GFG|AFD dAF|
[1 G/A/BA G2 D|GBd gdB|ecA FED|B3 cAF|GBA G2:|
[2 GB/c/d g2 f|gdG ecG|dBG AFD|B^AB c=AF|G/A/BA G2||

